logos/fauna.svg

<?xml version="1.0" encoding="UTF-8"?>
<svg width="512px" height="136px" viewBox="0 0 512 136" version="1.1" xmlns="http://www.w3.org/2000/svg" preserveAspectRatio="xMidYMid">
    <title>fauna</title>
    <g>
        <path d="M161.538626,54.6365598 L161.538626,49.6976808 C161.538626,33.4575844 175.20736,21.4444866 191.270474,21.4444866 C194.491449,21.4444866 197.712425,21.9338597 199.148902,22.423308 L195.449352,36.9281185 C194.143053,36.4386702 192.706575,36.2607096 191.270474,36.2607096 C182.912719,36.2607096 177.297363,42.4897093 177.297363,49.742077 L177.297363,54.6809559 L196.580324,54.6809559 L196.580324,66.8274301 L177.297363,66.8274301 L177.297363,128.584674 L161.538626,128.584674 L161.538626,66.783034 L152.224097,66.783034 L152.224097,54.6365598 L161.538626,54.6365598 Z M199.759161,91.609112 C199.759161,70.2523265 214.863996,53.8344199 234.800482,53.8344199 C245.07329,53.8344199 254.084571,59.4407454 259.394421,67.8052732 L259.394421,54.6798272 L275.109138,54.6798272 L275.109138,128.583545 L259.35153,128.583545 L259.35153,115.457723 C253.866353,123.822627 244.899092,129.4282 234.756838,129.4282 C214.863996,129.38418 199.759161,112.787937 199.759161,91.609112 Z M215.516769,91.609112 C215.516769,105.891867 225.311002,117.059369 237.36906,117.059369 C247.641492,117.059369 259.394421,108.338544 259.394421,91.609112 C259.394421,77.5050704 249.905694,66.1592311 237.36906,66.1592311 C225.311002,66.1592311 215.516769,77.6382587 215.516769,91.609112 Z M285.251392,97.5224479 L285.251392,54.6756885 L300.834426,54.6756885 L300.834426,98.5458158 C300.834426,108.067652 307.886258,116.298616 317.854314,116.298616 C330.565145,116.298616 337.443156,105.308698 337.443156,97.5672202 L337.443156,54.7200847 L353.026566,54.7200847 L353.026566,128.623427 L337.443156,128.623427 L337.443156,118.612857 C332.48095,125.019441 324.601769,129.468834 315.417042,129.468834 C296.481726,129.380042 285.251392,114.741742 285.251392,97.5224479 Z M361.733471,128.540278 L361.733471,54.6365598 L377.318009,54.6365598 L377.318009,64.647506 C382.148908,58.2405455 390.027336,53.7911525 399.342994,53.7911525 C418.14738,53.7911525 429.55116,68.4294524 429.55116,85.6479939 L429.55116,128.495506 L413.971135,128.495506 L413.971135,84.6250022 C413.971135,74.614056 406.438847,66.8722025 396.773287,66.8722025 C383.932277,66.8722025 377.318009,78.3516064 377.318009,85.603974 L377.318009,128.450733 L361.733471,128.450733 L361.733471,128.540278 Z M436.605626,91.609112 C436.605626,70.2523265 451.707828,53.8344199 471.64469,53.8344199 C481.919755,53.8344199 490.93066,59.4407454 496.239382,67.8052732 L496.239382,54.6798272 L512,54.6798272 L512,128.583545 L496.239382,128.583545 L496.239382,115.457723 C490.757591,123.822627 481.788072,129.4282 471.64469,129.4282 C451.707828,129.38418 436.605626,112.787937 436.605626,91.609112 Z M452.362482,91.609112 C452.362482,105.891867 462.155962,117.059369 474.214397,117.059369 C484.489462,117.059369 496.239382,108.338544 496.239382,91.609112 C496.239382,77.5050704 486.750654,66.1592311 474.214397,66.1592311 C462.155962,66.1592311 452.362482,77.6382587 452.362482,91.609112 Z" fill="#3A1AB6"></path>
        <path d="M93.0666588,28.4757015 C84.8398342,31.2788266 80.8784222,36.306573 78.1796655,44.1372564 C77.4832486,46.2283883 75.7420182,48.5422533 73.7833221,50.0995032 L80.5304018,57.4854355 L59.1134182,42.179689 L4.27733318e-13,0 C4.27733318e-13,0 4.26593927,28.2977408 5.7459475,38.7092678 C6.79064813,46.0504277 8.57540931,49.3428882 14.2342577,52.6801211 L16.4978572,53.9258458 L26.2485594,59.17625 L20.4590812,56.1061462 L47.1862908,71.011199 L47.0124688,71.4118927 L18.2390124,57.7969607 C19.7626266,63.1361571 22.7225678,73.4138561 23.9849599,77.9524176 C25.3344135,82.8465242 26.8579524,84.6261309 31.5156686,86.362094 L40.0911907,89.5653861 L45.401793,87.4294818 L38.6547133,92.0124394 L4.91886306,135.749002 C27.3367908,114.481385 46.3156756,106.917492 60.2018753,100.732889 C77.9185562,92.9022427 88.5834044,87.8745716 95.5479498,69.8098704 C100.510532,57.1295141 104.38428,40.8895682 109.303971,34.6157961 L119.794621,20.9118838 C119.794621,20.9118838 98.0725082,26.7849999 93.0666588,28.4757015 Z" fill="#3A1AB6"></path>
    </g>
</svg>

<?xml version="1.0" encoding="UTF-8"?>
<svg width="512" height="136" version="1.1" xmlns="http://www.w3.org/2000/svg" preserveAspectRatio="xMidYMid">
	<g fill="#3A1AB6">
		<path d="M161.539 54.637v-4.94c0-16.24 13.668-28.253 29.731-28.253 3.221 0 6.442.49 7.879.98l-3.7 14.504c-1.306-.49-2.742-.667-4.179-.667-8.357 0-13.973 6.229-13.973 13.481v4.939h19.283v12.146h-19.283v61.758H161.54V66.783h-9.315V54.637h9.315Zm38.22 36.972c0-21.357 15.105-37.775 35.041-37.775 10.273 0 19.285 5.607 24.594 13.971V54.68h15.715v73.904h-15.757v-13.126c-5.486 8.365-14.453 13.97-24.595 13.97-19.893-.044-34.998-16.64-34.998-37.819Zm15.758 0c0 14.283 9.794 25.45 21.852 25.45 10.272 0 22.025-8.72 22.025-25.45 0-14.104-9.488-25.45-22.025-25.45-12.058 0-21.852 11.48-21.852 25.45Zm69.734 5.913V54.676h15.583v43.87c0 9.522 7.052 17.753 17.02 17.753 12.711 0 19.59-10.99 19.59-18.732V54.72h15.583v73.903h-15.584v-10.01c-4.962 6.406-12.841 10.856-22.026 10.856-18.935-.089-30.166-14.727-30.166-31.947Zm76.482 31.018V54.637h15.585v10.01c4.83-6.406 12.71-10.856 22.025-10.856 18.804 0 30.208 14.638 30.208 31.857v42.848h-15.58V84.625c0-10.01-7.532-17.753-17.198-17.753-12.84 0-19.455 11.48-19.455 18.732v42.847h-15.585v.09Zm74.873-36.93c0-21.358 15.102-37.776 35.039-37.776 10.275 0 19.286 5.607 24.594 13.971V54.68H512v73.904h-15.76v-13.126c-5.482 8.365-14.452 13.97-24.595 13.97-19.937-.044-35.04-16.64-35.04-37.819Zm15.756 0c0 14.282 9.794 25.45 21.852 25.45 10.275 0 22.025-8.721 22.025-25.45 0-14.105-9.488-25.45-22.025-25.45-12.058 0-21.852 11.478-21.852 25.45Z"/>
		<path d="M93.067 28.476c-8.227 2.803-12.189 7.83-14.887 15.661-.697 2.091-2.438 4.405-4.397 5.963l6.747 7.385L59.113 42.18 0 0s4.266 28.298 5.746 38.71c1.045 7.34 2.83 10.633 8.488 13.97l2.264 1.246 9.75 5.25-5.789-3.07 26.727 14.905-.174.4L18.24 57.798c1.524 5.34 4.484 15.617 5.746 20.155 1.35 4.895 2.873 6.674 7.53 8.41l8.576 3.203 5.31-2.136-6.746 4.583L4.919 135.75c22.418-21.268 41.397-28.832 55.283-35.016 17.717-7.83 28.381-12.858 35.346-30.923 4.963-12.68 8.836-28.92 13.756-35.194l10.49-13.704s-21.721 5.873-26.727 7.564Z"/>
	</g>
</svg>
